X:1
T:Poi che l'empia mia sorte
T:Girolamo Scotto
T:Source : Madrigali a tre voci---Venetia---G.Scotto---1541. Editor : André Vierendeels (30/07/16).
T:Notes : Original clefs : C4, C4, F4 Editorial accidentals above the staff Original note values have been halved Square bracket indicates ligature "Primi toni" 
T:Poi che l'empia mia sorte
T:©
T:©
T:©
T:©
T:©
T:©
T:©
C:Girolamo Scotto
Z:©
%%score [ 1 2 3 ]
L:1/8
Q:1/4=95
M:2/2
K:F
V:1 treble-8 nm="Tenor 1" snm="T 1"
V:2 treble-8 nm="Tenor 2" snm="T 2"
V:3 bass nm="Bass" snm="B"
V:1
 c4 e4 | f6 f2 | d4 e4 | f3 e d2 f2 | e2 d2 c2 A2 | d4 d4- | d2 c2 B2 A2- | AG G4 F2 | G2 G4 A2 | %9
w: Poi che|l'em- pia|mi- a|sor- * * *|* * te, poi|che l'em-|* pia mi- a|_ _ sor- *|te, l'em- pia|
 E2 F4 E2 | D2 F2 F2 F2 | B4 A4- | A2 A2 A2 A2 | d4 c2 d2- | d2 A2 B2 B2 | G3 A B4 | A2 E2 F2 F2 | %17
w: mia sor- *|te, pian- ti'e so-|spi- ri,|_ pian- ti'e so-|spi- ri nel|_ mio cor rin-|fre- * *|sca, non per mio|
 G2 G2 A2 B2 | F3 G AB c2- | c2 B2 c2 G2 |"^b" G2 d2 e2 f2- |"^b" fe d4 c2 | B2 A3 GAB | c2 G2 B4 | %24
w: fal- lo gia, ma|per sua vo- * *|* * glia, di-|ro per- che ne'in-|* * cre- *||sca, al- la|
 A4 B4 | G4 z2 A2- | A2 A2 GABc | d2 e3 d d2- | d2 c2 d2 c2- | c2 c2 f4 | f6 e2 | d2 e2 f4- | %32
w: mia don-|na, com'|_ io cor- * * *|ro'a mor- * *|* * te, com'|_ io cor-|ro'a mor-|* * te,|
 f2 f2 d3 c | BA G2 B2 A2- | A2 G2 A2 B2 | B2 A2 B2 B2 | c3 B A2 c2- | c2 B2 c2 G2- | G2 d2 e2 e2 | %39
w: _ cor- ro'a _|_ _ mor- * *|* * te, com'|e d'o- gni suo|ben l'al- ma si|_ _ spo- glia,|_ l'al- ma si|
 f4 f3 e | d2 c2 c2 A2 | B2 c2 d3 c | B2 A2 G4 | F2 c2 c2 FG | AB c4 B2 | c8 | z2 d2 e2 e2 | %47
w: spo- glia, _|_ com' e d'o-|gni suo ben l'al-|ma si spo-|glia, l'al- ma si _|_ _ spo- *|glia,|et sel- la|
 f2 c2 c2 c2 | B2 A4 G2 | A4 z4 | z8 | z2 B2 A2 G2 | G2 F2 B4 | A4 z4 | B2 B2 A2 G2 | G2 A2 B4 | %56
w: pur vor- rach'an- chor|mi do- *|glia,||ha- vro tan-|to di- let-|to,|ch'io pren- de- ro|per gio- ia,|
 z2 A4 G2- | G2 F2 G4 | D2 d4 c2- | c2 B2 A4 | G2 G2 G2 G2 | G4 G4- | G8 |] %63
w: il pia-|* cer sem-|pre, il pia-|* cer sem-|pre, il pia- cer|sem- pre.|_|
V:2
 G8 | d6 A2 | B3 A G2 G2 | d3 c B2 A2- | AG G4 F2 | G2 D2 B4- | B2 A2 G2 F2 | B4 A2 d2 | %8
w: Poi|che l'em-|pia _ _ mia|sor- * * *||te, poi che|_ l'em- pia mia|sor- te, l'em-|
 B3 c de f2 | e2 d4 c2 | d2 A2 A2 A2 | d8 | c4 f4 | f2 f2 f4- | f2 c2 d2 f2- | fe e3 d d2- | %16
w: pia _ _ _ _|mia sor- *|te, pian- ti'e so-|spi-|ri, nel|mio cor rin-|* fre _ _|_ _ _ _ _|
 d2 c2 d2 B2 | B2 B2 f3 e | d2 d2 c2 f2 | d2 d2 _e3 d | c2 B2 A4- | A4 z2 G2 | d2 c2 c2 f2 | %23
w: * * sca, non|per mio fal- *|* lo gia, ma|per sua vo- *|* * glia,|_ di-|ro per- che n'in-|
 _e4 d3 e | f2 d4 d2 | d4 e4 | f4 z2 G2 | A2 c2 B3 A | G4 A4 | A4 d4 | c2 d4 c2 | B4 A2 A2- | %32
w: cre _ _|sca, al- la|mia don-|na, al-|la mia don- *|* na,|com' io|cor- ro a|mor- te, com'|
 A2 A2 GABc | d2 e3 d d2- | d2 c2 d4- | d8 | z8 | z4 z2 c2 | c2 B2 c2 c2 | d3 c B2 A2 | %40
w: _ io cor- * * *|ro'a mor- * *|* * te,|_||com'|e d'o- gni suo|ben l'am- ma si|
 B2 G2 A2 f2- | f2 e2 f4- | f4 e2 c2 | c2 AG AB c2- | cd e2 f4 | e2 A2 A2 A2 | B2 B2 G4 | %47
w: spo- * * *||* glie, l'al-|ma si _ _ _ _|_ _ _ spo-|glia, et sel- la|pur vor- ra|
 A4 A2 A2 | G2 F4 D2 | E2 F2 G2 A2 |"^-natural" B2 d3 c/B/ c2 | d6 B2 | B2 A2 G2 F2- | %53
w: ch'io mi la-|men- ti, di|con- ten- tar l'ha-||vro tan-|to di- let- *|
 F2 ED E2 F2- | F2 G3 F F2- | F2 E2 D4- | D4 z2 G2 | A2 A2 B2 B2 | A2 B4 A2- | A2 G4 F2 | %60
w: ||* * to,|_ ch'io|pren- de- ro per|gio- ia'il pia-|* cer sem-|
 G2 _E2 E2 D2 | _E4 D4- | D8 |] %63
w: pre, il pia- cer|sem- pre.|_|
V:3
 C,8 | B,,6 F,,2 | G,,4 C,4 | B,,3 C, D,4 | C,2 B,,2 A,,4 | G,,8 | z8 | G,,4 D,4 |"^b" E,6 D,2 | %9
w: Poi|che l'em-|pia mia|sor- * *||te,||poi che|_ l'em-|
 C,2 B,,2 A,,4 | D,6 D,2 | G,,2 G,,2 D,4 | F,3 E, D,4 | B,4 A,2 B,2 | F,2 F,2 B,,4 | C,4 G,,4 | %16
w: pia mia sor-|te, pian-|ti'e so- spi-||ri, nel mio|cor rin- fre-|sca, non|
 A,,2 A,,2 D,4 | _E,4 D,2 B,,2 | B,,2 B,,2 F,4 | G,4 C,3 D, |"^b" E,F, G,4 F,2 | D,2 F,2 _E,4 | %22
w: per mio fal-|lo gia, ma|per sua vo-||||
 D,2 F,2 F,2 F,2 | C,2 C,2 G,4 | D,4 z2 G,2 | B,4 A,3 G, | F,2 D,2 _E,4 | D,2 C,2 G,3 F, | %28
w: glia, di- ro per-|che n'in- cre-|sca, al-|la mia _|_ _ don-||
 _E,4 D,2 F,2- | F,2 F,2 D,E,F,G, | A,2 B,3 A, A,2- | A,2 G,2 F,3 E, | D,4 G,,3 A,, | %33
w: * na, com'|_ io cor- * * *|ro'a mor- * *||te, com' io|
 B,,2 C,2 D,4 | E,4 D,2 G,2 | G,2 F,2 G,2 G,2 | A,3 G, F,2 E,2 | D,4 C,3 D, | E,F, G,2 C,4 | %39
w: cor- ro'a mor-|* te, com'|e d'o- gni suo|ben l'al- ma si|spo- * *|* * glia, com'|
 B,,3 C, D,E, F,2- |"^-natural" F,2 E,2 F,3 E, | D,2 C,2 B,,3 C, | D,E, F,4 E,2 | F,3 E, F,G, A,2 | %44
w: e _ _ _ _|_ d'o- gni suo|ben _ _ _|_ _ _ _|l'al- * * * *|
 F,2 E,2 D,4 | C,2 F,2 F,2 F,2 | B,,2 B,,2 C,4 | F,,4 F,,2 F,,2 | G,,2 A,,2 B,,4 | %49
w: ma si spo-|glia, et del- la|pur vor- ra|ch'io mi la-|men- * *|
 A,,2 D,2 E,2 F,2 | G,2 F,2 E,4 |"^b" D,2 G,,2 D,2 E,2 | D,4 G,,2 D,2 | D,2 D,2 C,2 A,,2 | %54
w: ti, di con- ten-|tar l'ha- *|vro tan- to di-|let- to, ch'io|pren- de- ro per|
 B,,2 G,,2 D,4 | G,,2 C,4 B,,2 | G,,2 D,2 E,2 E,2 | D,4 G,,4 | z2 G,,2 G,,2 A,,2 | B,,3 C, D,4 | %60
w: gio- ia'l pia-|cer sem- pre,|il pia- cer sem-|* pre,|il pia- cer|sem- * pre,|
"^#" G,,2 C,4 B,,2 | C,4 G,,4- | G,,8 |] %63
w: il pia- cer|sem- pre.|_|

